!!!!SEGMENT: pl-sa--276-a-vii-36--001_m-m--ach-ciezka-zalosc.krn
!!!cenid: 17xx:1231
!!!COM: M.M.
!!!COM-rismID: pe30002031
!!!CDT:
!!!CNT:
!!!OTL: Ach, ciężka żałość
!!!PDT: 1714
!!!AGN: Sacred
!!!YEC: Copyright 2022 Narodowy Instytut Fryderyka Chopina (https://polishscores.org)
!!!YEM: License CC-BY-4.0 (https://creativecommons.org/licenses/by/4.0)
!!!SMS-siglum: PL-SA
!!!SMS-shelfmark: 276/A VII 36
!!!SMS-shelfwork: 001 W
!!!SMS-variant:
!!!SMS-altvar:
!!!NIFC-rismSourceID: 1001041688
!!!NIFC-rismChildID: 1001041688
!!!NIFC-islandoraID: none
!!!URL-pdf-islandora:
!!!URL-scan: https://bc.bdsandomierz.pl/dlibra/publication/1759/edition/1727/content @EN{Scan in the Sandomierz Diocese Digital Library} @PL{Skany w portalu Cyfrowa Biblioteka Diecezjalna w Sandomierzu}
!!!IIIF:
!!!ONB-nifc: UWAGA: utwory w zbiorze: 1. Ach, ciężka żałość, 2. Zemdlony Jezus
!!!AIN: 1 alto 1 tenor 2 violn
!!!key: c
**kern	**fba	**kern	**kern	**kern	**text	**text	**text	**kern	**text	**text	**text
*	*	*group2	*group2	*group1	*	*	*	*group1	*	*	*
*part5	*	*part4	*part3	*part2	*	*	*	*part1	*	*	*
*staff5	*	*staff4	*staff3	*staff2	*	*	*	*staff1	*	*	*
*	*	*	*	*	*	*	*	*	*v:1	*verse:2	*verse:3
*I"[basso continuo]	*	*I"Violino 2do	*I"1mo	*I"Tenore 1mo.	*	*	*	*I"Alto 1mo.	*	*	*
*I'[bc]	*	*I'vl II	*I'vl I	*I'T I	*	*	*	*I'A I	*	*	*
*	*	*Ivioln	*Ivioln	*Itenor	*	*	*	*Ialto	*	*	*
*	*	*ICstr	*ICstr	*ICvox	*	*	*	*ICvox	*	*	*
*clefF4	*	*clefG2	*clefG2	*clefC4	*	*	*	*clefC3	*	*	*
*k[e-a-b-]	*	*k[e-b-a-]	*k[e-b-a-]	*k[e-b-a-]	*	*	*	*k[b-e-a-]	*	*	*
*c:	*	*c:	*c:	*c:	*	*	*	*c:	*	*	*
*M2/2	*	*M2/2	*M2/2	*M2/2	*	*	*	*M2/2	*	*	*
*met(c|)	*	*met(c|)	*met(c|)	*met(c|)	*	*	*	*met(c|)	*	*	*
=1	=1	=1	=1	=1	=1	=1	=1	=1	=1	=1	=1
*all\right	*	*all\right	*all\right	*all\right	*vv:1	*vv:2	*vv:3	*all\right	*vv:1	*vv:2	*vv:3
*2\right	*	*2\right	*2\right	*2\right	*	*	*	*2\right	*	*	*
!	!	!LO:TX:a:t=Plankt 1mo 	!LO:TX:a:t=Planct(us) 1moViolino 	!	!	!	!	!	!	!	!
!LO:TX:t=P:problem=znaki E- A- BB-	!	!LO:TX:t=P:problem=znaki ee- b- a- e-	!LO:TX:t=P:problem=znaki ee- b- a- e-	!	!	!	!	!LO:TX:t=P:problem=znaki B- e- a-	!	!	!
2E-\	3	2ee-\	2gg\	2e-\	Ah	O	Bo-	2g\	Ah	O	Bo-
4BB-/	.	4dd\	4ff\	4d\	cięz-	Je-	-le-	4f\	cięz-	Je-	-le-
4E-/	.	4ee-\	4gg\	4e-\	-ſzka	-zu	-ſna	4g\	-ſzka	-zu	-ſna
=2	=2	=2	=2	=2	=2	=2	=2	=2	=2	=2	=2
8C\L	3	2cc\	2ee-T\	2c\	Ƶa-	ia-	Mat-	2e-\	Ƶa-	ia-	Mat-
8D\	.	.	.	.	.	.	.	.	.	.	.
8E-\	.	.	.	.	.	.	.	.	.	.	.
8F\J	6 5	.	.	.	.	.	.	.	.	.	.
!	!	!LO:TX:a:t=P:problem=# above	!	!	!	!	!	!	!	!	!
!	!	!LO:N:acc=#	!	!LO:N:acc=#	!	!	!	!	!	!	!
2GG/	#	2bn\	2dd\	2Bn\	-łość	-kos	-ko	2d\	-łość	-kos	-ko
=3	=3	=3	=3	=3	=3	=3	=3	=3	=3	=3	=3
4.E-\	3	4.ee-\	4.gg\	4.e-\	pa-	cięz-	iak	4.g\	pa-	cięz-	iak
8E-\	.	8ee-\	8gg\	8e-\	-trząc	-ſzko	cięz-	8g\	-trząc	-ſzko	cięz-
4F\	-	4ff\	4aa-\	4f\	na	ſka-	-szki	4a-\	na	ſka-	-szki
8G\L	.	4ee-\	4gg\	4e-\	Je-	-to-	zal	4g\	Je-	-to-	zal
8A-\J	6 5	.	.	.	.	.	.	.	.	.	.
=4	=4	=4	=4	=4	=4	=4	=4	=4	=4	=4	=4
!LO:TX:t=P:problem=mixed beam	!	!	!	!	!	!	!	!	!	!	!
8B-\L	.	2b-/	2ffT\	2B-\	-zu-	-wa-	to-	2f\	-zu-	-wa-	to-
8A-\	.	.	.	.	.	.	.	.	.	.	.
8B-\	4	.	.	.	.	.	.	.	.	.	.
.	3	.	.	.	.	.	.	.	.	.	.
8BB-/J	.	.	.	.	.	.	.	.	.	.	.
2E-\	.	2g/	2ee-\	2G/	-sa	-ny	-bie	2e-\	-sa	-ny	-bie
=5	=5	=5	=5	=5	=5	=5	=5	=5	=5	=5	=5
8BB-/L	6	2dd\	2ff\	2d\	Gdy	A	Pa-	2f\	Gdy	A	pa-
8C/	.	.	.	.	.	.	.	.	.	.	.
8D/	6 -	.	.	.	.	.	.	.	.	.	.
8BB-/J	.	.	.	.	.	.	.	.	.	.	.
2BB-/	3	4gg\	4bb-\	4g\	go	Krzyz	-trząc	4b-\	go	Krzyz	-trząć
.	.	4dd\	4ff\	4d\	pro-	Cię	na	4f\	pro-	Cię	na
=6	=6	=6	=6	=6	=6	=6	=6	=6	=6	=6	=6
8E-\L	3	2ee-T\	2ggt\	2e-\	-wa-	cze-	paſ-	2g\	-wa-	cze-	paſ-
8F\	.	.	.	.	.	.	.	.	.	.	.
8G\	.	.	.	.	.	.	.	.	.	.	.
8A-\J	6 5	.	.	.	.	.	.	.	.	.	.
2BB-/	3	2dd\	2ff\	2d\	-dzą	-ka,	-twę	2f\	-dzą	-ka	-twę
=7	=7	=7	=7	=7	=7	=7	=7	=7	=7	=7	=7
4.A-\	5	4.cc\	4.ee-\	4.c\	Ƶy-	Juz	Sy-	4.e-\	Ƶy-	Juz	Sy-
8G\	-6	8dd\	8ff\	8d\	-dzi	wy-	-na	8f\	-dzi	wy-	-na
!LO:LB:g=original	!	!LO:LB:g=original	!	!	!	!	!	!	!	!	!
4F\	.	4ee-\	4gg\	4e-\	do	-go-	Swe-	4g\	do	-go-	Swe-
8E-\L	.	4cc\	4ee-\	4c\	Ra-	-to-	-go	4e-\	Ra-	-to-	-go
8F\J	6 5	.	.	.	.	.	.	.	.	.	.
!	!	!	!LO:LB:g=original	!	!	!	!	!	!	!	!
=8	=8	=8	=8	=8	=8	=8	=8	=8	=8	=8	=8
!LO:TX:t=P:problem=mixed beam	!	!	!	!	!	!	!	!	!	!	!
8G\L	.	2gt/	2ddt\	2G/	-tu-	-wa-	to-	2d\	-tu-	-wa-	to-
8F\	.	.	.	.	.	.	.	.	.	.	.
8G\	4	.	.	.	.	.	.	.	.	.	.
.	3	.	.	.	.	.	.	.	.	.	.
8GG/J	.	.	.	.	.	.	.	.	.	.	.
!	!	!LO:TX:a:t=P:problem=# above	!	!LO:TX:a:t=P:problem=# above	!	!	!	!	!	!	!
!	!	!LO:N:acc=#	!	!LO:N:acc=#	!	!	!	!	!	!	!
2C/	.	2en/	2cc\	2En/	-ſza.	-ny	-bie	2c/	-ſza	-ny	-bie.
!	!	!	!	!LO:LB:g=original	!	!	!	!LO:LB:g=original	!	!	!
=9||	=9||	=9||	=9||	=9||	=9||	=9||	=9||	=9||	=9||	=9||	=9||
!	!	!LO:TX:a:t=P:problem=# above	!	!LO:TX:a:t=P:problem=# above	!	!	!	!	!	!	!
!	!	!LO:N:acc=#	!	!LO:N:acc=#	!	!	!	!	!	!	!
2GG/	5 #	2bn\	2dd\	2Bn\	I	Juz	Rad-	2d\	I	Juz	Rad-
4E-\	3	4ee-\	4gg\	4e-\	ztam-	y	-niey	4g\	ztam-	ÿ	-nieÿ
4BB-/	.	4dd\	4ff\	4d\	-tąd	dra-	bys	4f\	-tąd	dra-	bys
=10	=10	=10	=10	=10	=10	=10	=10	=10	=10	=10	=10
8C\L	3	2cc\	2ee-T\	2c\	wlo-	-bi-	ſa-	2e-\	Wlo-	-bi-	ſa-
8D\	.	.	.	.	.	.	.	.	.	.	.
8E-\	6	.	.	.	.	.	.	.	.	.	.
8F\J	6 5	.	.	.	.	.	.	.	.	.	.
!	!	!LO:TX:a:t=P:problem=# above	!	!LO:TX:a:t=P:problem=# above	!	!	!	!	!	!	!
!	!	!LO:N:acc=#	!	!LO:N:acc=#	!	!	!	!	!	!	!
2GG/	#	2bn\	2dd\	2Bn\	-ką	-nę	-ma	2d\	-ką	-nę	-ma
=11	=11	=11	=11	=11	=11	=11	=11	=11	=11	=11	=11
4.E-\	3_	4.ee-\	4.gg\	4.e-\	iak	Z gwoz-	Tę	4.g\	Jak	Z gwoz-	te
8E-\	.	8ee-\	8gg\	8e-\	zło-	-dźia-	bo-	8g\	Zło-	-dzia-	bo-
4F\	-	4ff\	4aa-\	4f\	-czyn-	-mi	-le	4a-\	-czÿn-	-mi	-le
8G\L	.	4ee-\	4gg\	4e-\	-ce	go-	cier-	4g\	-ce	go-	cier-
8A-\J	6 5	.	.	.	.	.	.	.	.	.	.
=12	=12	=12	=12	=12	=12	=12	=12	=12	=12	=12	=12
2BB-/	4	2b-/	2ffT\	2B-\	złe-	-tu-	-pia-	2f\	zle-	-tu-	-pia-
.	3	.	.	.	.	.	.	.	.	.	.
2E-\	.	2g/	2ee-\	2G/	-go	-ią,	-ła	2e-\	-go	-ią	-la
=13	=13	=13	=13	=13	=13	=13	=13	=13	=13	=13	=13
!	!	!LO:TX:a:t=P:problem=# above	!	!	!	!	!	!	!	!	!
!	!	!LO:N:acc=#	!	!LO:N:acc=#	!	!	!	!	!	!	!
2GG/	#	2bn/	2dd\	2Bn\	Sa-	By	Gdy	2d\	ſa-	bÿ	Gdy
4E-\	.	4ee-\	4gg\	4e-\	-mi	Cię	wi-	4g\	-mi	cię	Wi-
4BB-/	.	4dd\	4ff\	4d\	nie	na	-dzisz	4f\	nie	na	-dziſz
!	!	!LO:LB:g=original	!	!	!	!	!	!	!	!	!
=14	=14	=14	=14	=14	=14	=14	=14	=14	=14	=14	=14
8C\L	.	2cc\	2ee-T\	2c\	Zna-	krzy-	ze	2e-\	Zna-	Krzÿ-	Ze
8D\	.	.	.	.	.	.	.	.	.	.	.
8E-\	6	.	.	.	.	.	.	.	.	.	.
8F\J	6 5	.	.	.	.	.	.	.	.	.	.
!LO:LB:g=original	!	!LO:TX:a:t=P:problem=# above	!	!	!	!	!	!	!	!	!
!	!	!LO:N:acc=#	!	!LO:N:acc=#	!	!	!	!	!	!	!
2GG/	#	2bn\	2dd\	2Bn\	-ią	-zu	Krew	2d\	-ią	-zu	Krew
!	!	!	!LO:LB:g=original	!	!	!	!	!	!	!	!
=15	=15	=15	=15	=15	=15	=15	=15	=15	=15	=15	=15
4.A-\	.	4.cc\	4.ee-\	4.c\	ze	przy-	pły-	4.e-\	Ze	przÿ-	płÿ-
8G\	-6	8cc\	8ee-\	8c\	są	-bić	-ńie	8e-\	Są	-bic	-nie
4F\	.	4dd\	4ff\	4d\	nić	u-	zie-	4f\	nic	[[Uſi]]	Zie-
8E-\L	.	4cc\	4ee-\	4c\	Do-	-si-	-go	4e-\	do-	usi-	-go
8F\J	6 5	.	.	.	.	.	.	.	.	.	.
=16	=16	=16	=16	=16	=16	=16	=16	=16	=16	=16	=16
!LO:TX:t=P:problem=mixed beam	!	!	!	!	!	!	!	!	!	!	!
8G\L	.	2g/	2ddt\	2G/	-bre-	-łu-	Cia-	2d\	-bre-	-łu-	Cia-
8F\	.	.	.	.	.	.	.	.	.	.	.
8G\	4	.	.	.	.	.	.	.	.	.	.
.	3	.	.	.	.	.	.	.	.	.	.
8GG/J	.	.	.	.	.	.	.	.	.	.	.
!	!	!LO:TX:a:t=P:problem=# above	!	!LO:TX:a:t=P:problem=# above	!	!	!	!	!	!	!
!	!	!LO:N:acc=#	!	!LO:N:acc=#	!	!	!	!	!	!	!
2C/	.	2en/	2cc\	2En/	-go	-ią	-ła	2c/	-go.	-ią	-ła
==	==	==	==	==	==	==	==	==	==	==	==
*-	*-	*-	*-	*-	*-	*-	*-	*-	*-	*-	*-
!!!system-decoration: [(g1)][(g2)]s5
!!!ENC: Andrzej Kubiczek
!!!END: 2020-11-15
!!!ENC: Marta Lawrence
!!!END: 2022-01-12
